icons/svgs/cube-outline.svg

<svg width="24" height="24" viewBox="0 0 24 24" fill="none" xmlns="http://www.w3.org/2000/svg">
<path d="M12.0781 3.99219C12.0391 3.95312 11.9609 3.95312 11.8828 3.99219L4.46094 6.80469L12 9.77344L19.5 6.80469L12.0781 3.99219ZM3.875 16.7656C3.875 16.9219 3.95312 17.0391 4.07031 17.0781L11.0625 19.7344V11.4141L3.875 8.60156V16.7656ZM12.9375 19.7344L19.8906 17.0781C20.0078 17.0391 20.125 16.9219 20.125 16.7656V8.60156L12.9375 11.4141V19.7344ZM11.2188 2.23438C11.6875 2.03906 12.2734 2.03906 12.7422 2.23438L20.5547 5.20312C21.4141 5.51562 22 6.33594 22 7.27344V16.7656C22 17.7031 21.4141 18.4844 20.5547 18.8359L12.7422 21.8047C12.2734 22 11.7266 22 11.2188 21.8047L3.40625 18.8359C2.54688 18.4844 2 17.7031 2 16.7656V7.27344C2 6.33594 2.54688 5.51562 3.40625 5.20312L11.2188 2.23438Z" fill="black"/>
</svg>

<svg xmlns="http://www.w3.org/2000/svg" width="24" height="24" fill="currentColor" class="icon-cube-outline" viewBox="0 0 24 24">
  <mask id="a" width="20" height="20" x="2" y="2" maskUnits="userSpaceOnUse" style="mask-type:alpha">
    <path d="M12.078 3.992c-.039-.039-.117-.039-.195 0L4.46 6.805 12 9.773l7.5-2.968zM3.875 16.766c0 .156.078.273.195.312l6.993 2.656v-8.32L3.875 8.602zm9.063 2.968 6.953-2.656a.34.34 0 0 0 .234-.312V8.602l-7.187 2.812zm-1.72-17.5a2.05 2.05 0 0 1 1.524 0l7.813 2.97A2.2 2.2 0 0 1 22 7.273v9.492c0 .937-.586 1.718-1.445 2.07l-7.813 2.969a2.05 2.05 0 0 1-1.523 0l-7.813-2.97C2.546 18.486 2 17.704 2 16.766V7.274c0-.937.547-1.757 1.406-2.07z"/>
  </mask>
  <g mask="url(#a)">
    <path d="M0 0h24v24H0z"/>
  </g>
</svg>
